dist/svgs/unicons/line/google-hangouts-alt.svg

<svg xmlns="http://www.w3.org/2000/svg" data-name="Layer 1" viewBox="0 0 24 24"><path d="M8.9917,7.69049a2,2,0,0,0,0,4l.01514-.00153v.50147a.501.501,0,0,1-.5.5,1,1,0,0,0,0,2,2.50232,2.50232,0,0,0,2.5-2.5v-2.5A.94144.94144,0,0,0,10.9765,9.54,1.99365,1.99365,0,0,0,8.9917,7.69049Zm2.99951-6.68854a9.78734,9.78734,0,0,0-1,19.52344V22.002a.99911.99911,0,0,0,1.23926.97071A12.53481,12.53481,0,0,0,21.69727,11.998a9.73409,9.73409,0,0,0-9.70606-10.9961ZM19.709,11.78223a10.54778,10.54778,0,0,1-6.71777,8.86035V19.57617a.99942.99942,0,0,0-1-1,7.78711,7.78711,0,1,1,7.78809-7.78711A7.94524,7.94524,0,0,1,19.709,11.78223ZM14.9917,7.69049a2,2,0,1,0,0,4l.01514-.00153v.50147a.501.501,0,0,1-.5.5,1,1,0,0,0,0,2,2.50232,2.50232,0,0,0,2.5-2.5v-2.5A.94144.94144,0,0,0,16.9765,9.54,1.99365,1.99365,0,0,0,14.9917,7.69049Z"/></svg>

<svg xmlns="http://www.w3.org/2000/svg" data-name="Layer 1" viewBox="0 0 24 24"><path d="M8.992 7.69a2 2 0 000 4l.015-.001v.501a.501.501 0 01-.5.5 1 1 0 000 2 2.502 2.502 0 002.5-2.5v-2.5a.941.941 0 00-.03-.15 1.994 1.994 0 00-1.985-1.85zm3-6.688a9.787 9.787 0 00-1 19.523v1.477a1 1 0 001.238.97 12.535 12.535 0 009.467-10.974 9.734 9.734 0 00-9.706-10.996zm7.717 10.78a10.548 10.548 0 01-6.718 8.86v-1.066a1 1 0 00-1-1 7.787 7.787 0 117.788-7.787 7.945 7.945 0 01-.07.993zM14.992 7.69a2 2 0 100 4l.015-.001v.501a.501.501 0 01-.5.5 1 1 0 000 2 2.502 2.502 0 002.5-2.5v-2.5a.941.941 0 00-.03-.15 1.994 1.994 0 00-1.985-1.85z"/></svg>
